X:137
T:Johnny with the queer thing
T:The sailor on the rock
R:Reel
O:Ireland
B:Music from Ireland Vol. 3
B:O'Neill's 1294
S:My arrangement from various sources
Z:Transcription:Trish O'Neil, arrangement, chords:Mike Long
M:C|
L:1/8
K:D
"D"defd "G"B2dB|"D"AD (3(FED) FAA2|\
"D"defd "G"~B2dB|[1 "A"ABdf "G"gfef:|[2 "A"ABdf "D"~e2d2|]
|:"D"faag fd~d2|"G"gfga bgeg|\
"D"faag fedB|[1 "A"ABdf "G"~e2d2:|[2 "A"ABdf "G"gfef|]
